X:1
T:8 Lieder and Romances, Op.14
T:Murrays Ermordung
T:3. Murrays Ermordung
T:Johannes Brahms
T:Schottisch; aus Herders Stimmen der Wölker
T:8 Lieder and Romances, Op.14
T:Creative Commons copyright waiver (CC0 1.0 Universal) 
T:Creative Commons copyright waiver (CC0 1.0 Universal) 
T:Creative Commons copyright waiver (CC0 1.0 Universal) 
C:Johannes Brahms
Z:Schottisch; aus Herders Stimmen der Völker
Z:Creative Commons copyright waiver (CC0 1.0 Universal)
Z:
%%score ( 1 2 ) { ( 3 5 ) | ( 4 6 ) }
L:1/8
Q:1/4=110
M:2/4
K:G
V:1 treble nm="Singstimme\nVoice"
V:2 treble 
V:3 treble nm="Pianoforte"
V:5 treble 
V:4 bass 
V:6 bass 
V:1
"^Con moto"!f! B |:!f! e3/2 B/ ^c3/2 ^d/ | (e>B) ^c3/2 ^d/ | e3/2 =d/ =c3/2 B/ | A2 z c | %5
w: 1. O|Hoch- land und o|Süd- * land! Was|ist auf euch ge-|schehn! Er-|
w: |Weh dir! Weh dir,|Hunt- * ley! So|un- treu, falsch und|kühn, sollst|
 (3cB A (3(BA) G | (3:2:2d2 D (3:2:2z2 d | (3(_ed) c (3(dc) B | f2 z3/2 f/ | (g>^d e3/2) f/ | %10
w: * * der ed- * le|Mu- ray, werd|nie * ihn wie- * der-|sehn, werd|nie _ _ ihn|
w: * * zu- rück * uns|brin- gen, er-|mor- * det hast * du|ihn, er-|mor- * * det|
 ^d3 d | e2 z2 | z4 | z4 | z4 | z4 |1 z2 z!f! B :|2 z4 || z4 | z4 | z2 z!p! A |: A A G G | F2 D A | %23
w: wie- der-|sehn.|||||2. O||||3. Ein|schö- ner Rit- ter|war er, in|
w: hast du|ihn.||||||||||schö- ner Rit- ter|war er, bei|
 A A G G | F2 z F |!<(! F F B!<)! B | B2 E E |!<(! A A e!<)! e | e2 z2 | z4 | z2 z"^più" A :| %31
w: Wett und Rin- ge-|Lauf; all-|zeit war uns- res|Mur- ray die|Kro- ne o- ben|drauf.||4. Ein|
w: Waf- fen- spiel und|Ball; es|war der ed- le|Mur- ray die|Blu- me ü- ber-|all.||5. Ein|
"^piùancora"!mf! A A G G | F2 D A | A A G G | F2 z F | F F B B | B2 E E |!<(! A A e!<)! e | e3 z | %39
w: schö- ner Rit- ter|war er, in|Tanz und Sai- ten-|spiel; ach,|dass der ed- le|Mur- ray der|Kö- ni- gin ge-|fiel.|
w: ||||||||
 z4 | z2 z!f! B || e3/2 B/ ^c3/2 ^d/ | (e>B) ^c3/2 ^d/ | e3/2 =d/ =c3/2 B/ | A2 z c | %45
w: |O|Kö- ni- gin, wirst|lan- * ge sehn|ü- ber Schlos- ses|wall, eh|
w: ||||||
 (3(cB) A (3(BA) G | (3:2:2d2 D (3:2:2z2 d |!<(! (3(_ed) c (3(dc)!<)! B | f2 z c | (g>^d e3/2) f/ | %50
w: du _ den schö- * nen|Mur- ray siehst|rei- * ten in * dem|Tal siehst|rei- * * ten|
w: |||||
 ^d3 d | e2 z2 | z4 | z4 | z4 | z4 | z4 | z2 z |] %58
w: in dem|Tal.|||||||
w: ||||||||
V:2
 x |: x4 | x4 | x4 | x4 | (3(cB) A x2 | x4 | x4 | x4 | x4 | x4 | x4 | x4 | x4 | x4 | x4 |1 z4 :|2 %17
 x4 || x4 | x4 | x4 |: x4 | x4 | x4 | x4 | x4 | x4 | x4 | x4 | x4 | x4 :| x4 | x4 | x4 | x4 | x4 | %36
 x4 | x4 | x4 | x4 | x4 || x4 | x4 | x4 | x4 | x4 | x4 | x4 | x4 | x4 | x4 | x4 | x4 | x4 | x4 | %55
 x4 | x4 | x3 |] %58
V:3
 z |: [GBe]2 [A^ca]>[F^df] | [Geg]2 [A^ca]>[F^df] | [Geg]>[FBf] [E=ce]>[DGd] | (F>G A>)G | %5
 [CFc]2 [B,GB]2 | [A,DFA]2 [G,DG]2 | [_EAc_e]2 [DBd]2 | [FAcf]2 [FA^df]2 | %9
 [GBeg]>[FA^d] [EGe]>[Fcf] | ^d3 d | ([Ee]7/2 [Ee]/) | ([Aa]7/2 [Aa]/) | ([dd']7/2 [dd']/) | %14
 ([^d^d']2 [ee']) z/ .[a=d']/ | .[gb] z/ .[cgc']/ .[Afa] z/ [Bfb]/ |1 x2 (e^d) :|2 x2 (e^d) || %18
 [EGBe]2 z .[G,B,EG] | [G,B,EG]2 z .[A,DFA] | [A,DFA]2 z2 |: [A,DFA]2 [G,B,DG]2 | [F,A,DF]4 | %23
 [A,CEA]2 [G,CEG]2 | [DF]4 | [^DF]4 | [B,EB]4 | [A,^CEA]4 | [E^GBe]3!mf! .[=G,B,E=G] | %29
 [G,B,EG]3 .[A,=DFA] | [A,DFA]2 z2 :| [A,DFA]2 [G,B,DG]2 | [DF]4 | [A,CEA]2 [G,CEG]2 | [DF]4 | %35
 [^DF]4 | [B,EB]4 | (B2 ^c2) | [^A,F^A^c]3!f! [EAce] | [E^A^ce]3 [^DB^df] | [^DB^df]3 z || %41
 [GBe]2 [A^ca]>[F^df] | [Geg]2 [A^ca]>[F^df] | [Geg]>[FBf] [E=ce]>[DGd] | (F>G A>)G | %45
 [CFc]2 [B,GB]2 | [A,DFA]2 [G,DG]2 | [_EAc_e]2 [DBd]2 | [FAcf]2 [FA^df]2 | %49
 [GBeg]>[FA^d] [EGe]>[Fcf] | ^d3 d | ([Ee]7/2 [Ee]/) | ([Aa]7/2 [Aa]/) | ([dd']7/2 [dd']/) | %54
 ([^d^d']2 [ee']) z/ .[=da=d']/ | .[Bgb] z/ .[cgc']/ .[Afa] z/ [Bfb]/ | x2 (e^d) | [EGBe]2 z |] %58
V:4
 z |:!f! [E,,E,]2 [A,,,A,,]>[B,,,B,,] | [E,,E,]2 [A,,,A,,]>[B,,,B,,] | %3
 [E,,E,]>[=D,,=D,] [=C,,=C,]>[B,,,B,,] | [A,,,A,,]>[G,,,G,,] [F,,,F,,]>[E,,,E,,] | %5
 [B,,,,B,,,]2 [B,,,,B,,,]2 | (3([C,,C,][B,,,B,,][A,,,A,,]) (3([B,,,B,,][A,,,A,,][G,,,G,,]) | %7
 [F,,,F,,]2!<(! [G,,,G,,]2 | (3([_E,,_E,][D,,D,][C,,C,]) (3([=D,,=D,][C,,C,][B,,,B,,])!<)! | %9
 [E,,E,]>[B,,,B,,] [C,,C,]>[A,,,A,,] | [B,,,B,,]7/2 [B,,,B,,]/ | %11
!f! ([E,,E,]>[D,,D,][C,,C,]>[B,,,B,,]) |!<(! ([C,,C,]>[B,,,B,,][A,,,A,,]>[G,,,G,,]) | %13
 ([F,,,F,,]>[E,,,E,,][D,,,D,,]>[C,,,C,,])!<)! | ([B,,,,B,,,]2 [E,,,E,,]) z/ .[F,,,F,,]/ | %15
 .[G,,,G,,] z/ .[E,,,E,,]/ .[F,,,F,,] z/ [^D,,,^D,,]/ |1 [E,,,E,,]2 [B,,,B,,]2 :|2 %17
 [E,,,E,,]2 [B,,,B,,]2 || [E,,E,]2 z!mf! .[E,,E,] | [E,,E,]2 z .[D,,D,] | [D,,D,]2 z2 |: %21
!p! [D,,,D,,]4 | [D,,,D,,]4 | [A,,,A,,]2 [C,,C,]2 | [F,A,]4 | [F,B,]4 | [^G,,,^G,,]4 | [A,,,A,,]4 | %28
 [E,,,E,,]3"^più " .[E,,E,] | [E,,E,]3 .[=D,,=D,] | [D,,D,]2 z2 :|"^più " [D,,,D,,]4 | [F,A,]4 | %33
 [A,,,A,,]2 [C,,C,]2 | [F,A,]4 |!p! [F,B,]4 | [^G,,,^G,,]4 |!<(! [=A,,,=A,,]4!<)! | [F,,,F,,]4 | %39
 [F,,F,]4 | [B,,,B,,]3 z ||!f! [E,,E,]2 [A,,,A,,]>[B,,,B,,] | [E,,E,]2 [A,,,A,,]>[B,,,B,,] | %43
 [E,,E,]>[=D,,=D,] [=C,,=C,]>[B,,,B,,] | [A,,,A,,]>[G,,,G,,] [F,,,F,,]>[E,,,E,,] | %45
 [B,,,,B,,,]2 [B,,,,B,,,]2 | (3([C,,C,][B,,,B,,][A,,,A,,]) (3([B,,,B,,][A,,,A,,][G,,,G,,]) | %47
!<(! [F,,,F,,]2 [G,,,G,,]2 | (3([_E,,_E,][D,,D,][C,,C,]) (3([=D,,=D,][C,,C,]!<)![B,,,B,,]) | %49
 [E,,E,]>[B,,,B,,] [C,,C,]>[A,,,A,,] | [B,,,B,,]7/2 [B,,,B,,]/ | %51
!f! ([E,,E,]>[D,,D,][C,,C,]>[B,,,B,,]) |!<(! ([C,,C,]>[B,,,B,,][A,,,A,,]>[G,,,G,,]) | %53
 ([F,,,F,,]>[E,,,E,,][D,,,D,,]>[C,,,C,,])!<)! | ([B,,,,B,,,]2 [E,,,E,,]) z/ .[F,,,F,,]/ | %55
 .[G,,,G,,] z/ .[E,,,E,,]/ .[F,,,F,,] z/ [^D,,,^D,,]/ | [E,,,E,,]2 [B,,,B,,]2 | [E,,E,]2 z |] %58
V:5
 x |: x4 | x4 | x4 | [Cc]7/2 [Cc]/ | x4 | x4 | x4 | x4 | x4 | [Ac]2 [GB][FA] | G>dc>B |x>gf>e | %13
x>c'b>a | a>b g z/ =d/ | B x3 |1 [Geg]2 [FBf]2 :|2 [Geg]2 [FBf]2 || x4 | x4 | x4 |: x4 | x4 | x4 | %24
 x4 | x4 | x4 | x4 | x4 | x4 | x4 :| x4 | x4 | x4 | x4 | x4 | x4 | [B,E]4 | x4 | x4 | x4 || x4 | %42
 x4 | x4 | [Cc]7/2 [Cc]/ | x4 | x4 | x4 | x4 | x4 | [Ac]2 [GB][FA] | G>dc>B |x>gf>e |x>c'b>a | %54
 a>b g x | x4 | [Geg]2 [FBf]2 | x3 |] %58
V:6
 x |: x4 | x4 | x4 | x4 | x4 | x4 | x4 | x4 | x4 | x4 | x4 | x4 | x4 | x4 | x4 |1 x4 :|2 x4 || x4 | %19
 x4 | x4 |: x4 | x4 | x4 | [D,,D,]4 | [B,,,B,,]4 | x4 | x4 | x4 | x4 | x4 :| x4 | [D,,,D,,]4 | x4 | %34
 [D,,D,]4 | [B,,,B,,]4 | x4 | x4 | x4 | x4 | x4 || x4 | x4 | x4 | x4 | x4 | x4 | x4 | x4 | x4 | %50
 x4 | x4 | x4 | x4 | x4 | x4 | x4 | x3 |] %58

